!!!OTL: Divertimento in B, 1. Satz, KV 137/01
!!!system-decoration: [(s1,s2,s3,s4)]
**kern	**kern	**kern	**kern	**kern	**kern	**kern	**kern	**kern	**kern	**kern	**kern	**kern	**kern	**kern	**kern
*part4	*part4	*part4	*part4	*part3	*part3	*part3	*part3	*part2	*part2	*part2	*part2	*part1	*part1	*part1	*part1
*staff16	*staff15	*staff14	*staff13	*staff12	*staff11	*staff10	*staff9	*staff8	*staff7	*staff6	*staff5	*staff4	*staff3	*staff2	*staff1
*I"Violoncello e Basso	*	*	*	*I"Viola	*	*	*	*I"Violino II	*	*	*	*I"Violino I	*	*	*
*clefF4	*clefC3	*clefG2	*clefG2
*k[b-e-]	*k[b-e-]	*k[b-e-]	*k[b-e-]
*M3/4	*M3/4	*M3/4	*M3/4
2.r	2.r	2.r	4ff
.	.	.	(<16qee-y
.	.	.	4dd)
.	.	.	4cc
=2	=2	=2	=2
4F	4d	4a-	(8.bnL
.	.	.	32cc
.	.	.	32ddJ)
4E-y	4e-y	4g	4cc
4r	4r	4r	4r
=3	=3	=3	=3
2.r	2.r	2.r	4gg
.	.	.	(<16qff
.	.	.	4ee-y)
.	.	.	4dd
=4	=4	=4	=4
4G	4en	4b-y	(8.cc#L
.	.	.	32dd
.	.	.	32eenJ)
4F	4f	4an	4dd
4r	4r	4r	8r
.	.	.	(16ddL
.	.	.	16ee-J)
=5	=5	=5	=5
8GL	4r	8r	(2ee-y
8G	.	(16b-yL	.
.	.	16ccJ)	.
8G	4e-	8b-yL	.
8G	.	8b-y	.
8F	4f	8b-y	4dd)
8FJ	.	8b-yJ	.
=6	=6	=6	=6
8EnL	4g	8b-yL	4cc
8E	.	8b-y	.
8E-	4c	8a	4gg
8E-y	.	8aJ	.
8D	4d	8b-yL	(8ffL
8DJ	.	(16dd	8bb-yJ)
.	.	16ffJ)	.
!!LO:LB
=7	=7	=7	=7
.	.	(<16qff	.
.	.	.	(<16qaa
8E-yL	8e-yL	8ee-yL)	8ggL)
8E-y	8gJ	16dd	16ff
.	.	16ccJ	16ee-yJ
8F	4f	4b-y	4dd
8F	.	.	.
8FF	4e-y	4aT	4ccT
8FFJ	.	.	.
=8	=8	=8	=8
4BB-y	8dL	8b-yL	8b-yL
.	8b-yJ	8ddJ	8ffJ
4BB-y	4r	16r	16r
.	.	16d'L	16f'L
.	.	16d'	16f'
.	.	16d'J	16f'J
4r	4r	(16e-yL	(16gL
.	.	16d	16f
.	.	16c#	16en
.	.	16dJ)	16fJ)
=9	=9	=9	=9
4AA	8cL	8e-L	8fL
.	8ccJ	8ee-yJ	8ffJ
4AA	4r	16r	16r
.	.	16cnL	16e-L
.	.	16c	16e-y
.	.	16cJ	16e-yJ
4r	4r	(16BnL	(16dL
.	.	16c	16e-y
.	.	16d	16f
.	.	16cJ)	16e-yJ)
=10	=10	=10	=10
4BB-y	8FL	8B-L	8dL
.	8fJ	8bb-yJ	8dddJ
4G	2g	8r	8r
.	.	8dd	8bb-y
4En	.	8r	8r
.	.	8b-y	8dd
=11	=11	=11	=11
4F	4f	(8.ddL	(8.ffL
.	.	16b-yJ)	16ddJ)
8r	8r	4a	4cc
(8AL	(8cL	.	.
8B-y	8d	4r	4r
8GJ)	8B-yJ)	.	.
!!LO:LB
=12	=12	=12	=12
8FL	(16AL	2.cc	2.ccc
.	16c	.	.
8F	16A	.	.
.	16cJ)	.	.
8F	16AL	.	.
.	16c	.	.
8F	16A	.	.
.	16cJ	.	.
8F	16AL	.	.
.	16c	.	.
8FJ	16A	.	.
.	16cJ	.	.
=13	=13	=13	=13
8GL	16B-yL	[4en	[4een
.	16c	.	.
8G	16B-y	.	.
.	16cJ	.	.
8C	16GL	(8.eL_	(8.eeL_
.	16c	.	.
8C	16B-y	.	.
.	16cJ	32f	32ff
.	.	32gJ)	32ggJ)
8F	16AL	8f	8ff
.	16c	.	.
8FJ	16f	8r	8r
.	16cJ	.	.
=14	=14	=14	=14
.	.	(<32qaL	.
.	.	32qg	.
.	.	32qfJ	.
.	.	.	(<32qaaL
.	.	.	32qgg
.	.	.	32qffJ
8CL	16enL	8g)	8gg)
.	16c	.	.
8C	16e	8r	8r
.	16cJ	.	.
.	.	(<32qb-yL	.
.	.	32qa	.
.	.	32qgJ	.
.	.	.	(<32qbb-yL
.	.	.	32qaa
.	.	.	32qggJ
8C	16fL	8a)	8aa)
.	16c	.	.
8C	16f	8r	8r
.	16cJ	.	.
.	.	(<32qccL	.
.	.	32qb-y	.
.	.	32qaJ	.
.	.	.	(<32qcccL
.	.	.	32qbb-y
.	.	.	32qaaJ
8C	16gL	8b-y)	8bb-y)
.	16c	.	.
8CJ	16e	8r	8r
.	16gJ	.	.
=15	=15	=15	=15
.	(<16qg	.	.
.	.	(<16qb-y	.
.	.	.	(<16qbb-y
4C	8fL)	8aL)	8aaL)
.	16en	16g	16gg
.	16fJ	16aJ	16aaJ
4CC	4e	4g	4gg
4r	4r	4r	4r
=16	=16	=16	=16
8FFL	2.c	(16AL	2.cc
.	.	16c	.
8FF	.	16A	.
.	.	16cJ)	.
8FF	.	16AL	.
.	.	16c	.
8FF	.	16A	.
.	.	16cJ	.
8FF	.	16AL	.
.	.	16c	.
8FFJ	.	16A	.
.	.	16cJ	.
=17	=17	=17	=17
8GGL	[4En	16B-yL	[4en
.	.	16c	.
8GG	.	16B-y	.
.	.	16cJ	.
8CC	(8.EL_	16GL	(8.eL_
.	.	16B-y	.
8CC	.	16c	.
.	32F	16B-yJ	32f
.	32GJ)	.	32gJ)
8FF	8FL	8AL	8fL
8FFJ	[8fJ	8aJ	(16ff
.	.	.	16ccJ)
=18	=18	=18	=18
8BB-yL	8fL]	(16b-yL	(16ddL
.	.	16f)	16d)
8BB-y	8d	(16g	(16b-y
.	.	16B-yJ)	16gJ)
8C	8c	4A	4f
8C	8c	.	.
8CC	8c	4G	4en
8CCJ	8cJ	.	.
=19	=19	=19	=19
4FF	8c	8AL	8fL
.	8r	(32ff	(32aa
.	.	32gg	32bb-y
.	.	16aaJ)	16cccJ)
4AA	2cc	16r	16r
.	.	16a'L	16cc'L
.	.	16g'	16b-y'
.	.	16f'J	16a'J
4C	.	16en'L	16g'L
.	.	16d'	16f'
.	.	16e'	16g'
.	.	16c'J	16en'J
!!LO:LB
=20	=20	=20	=20
4DD	4r	8AL	8fL
.	.	(32dd	(32ff
.	.	32een	32gg
.	.	16ffJ)	16aaJ)
4FF	2a	16r	16r
.	.	16f'L	16a'L
.	.	16e'	16g'
.	.	16d'J	16f'J
4AA	.	16cL	16e-'L
.	.	16e-	16g'
.	.	16d	16f'
.	.	16cJ	16e-y'J
=21	=21	=21	=21
4BB-y	4r	8B-yL	8dL
.	.	(32b-y	(32dd
.	.	32cc	32een
.	.	16ddJ)	16ffJ)
4D	2f	16r	16r
.	.	16dL	16f'L
.	.	16c	16en'
.	.	16B-yJ	16d'J
4F	.	16AL	16c'L
.	.	16a	16cc'
.	.	16a	16cc'
.	.	16aJ	16cc'J
=22	=22	=22	=22
8BB-yL	4d	(16aL	(16ccL
.	.	16g)	16b-y)
8BB-y	.	(16b-y	(16dd
.	.	16gJ)	16b-yJ)
8C	4c	4f	4a
8C	.	.	.
8C	4c	4enT	4gT
8CJ	.	.	.
=23	=23	=23	=23
4F	2c	8fL	16fL
.	.	.	(16aa
.	.	(32ff	16ccc
.	.	32gg	.
.	.	32aa	16aaJ)
.	.	32ffJ)	.
4c	.	8eenL	16ggL
.	.	.	(16een
.	.	(32cc	16gg
.	.	32dd	.
.	.	32ee	16eeJ)
.	.	32ccJ)	.
4c#	[4a	8eeL	16ggL
.	.	.	(16g
.	.	(32en	16b-y
.	.	32f	.
.	.	32g	16gJ)
.	.	32eJ)	.
!!LO:LB
=24	=24	=24	=24
4d	4a]	8dL	16fL
.	.	.	(16ff
.	.	(32dd	16aa
.	.	32ee	.
.	.	32ff	16ffJ)
.	.	32ddJ)	.
4A	4f	8ccL	16ee-L
.	.	.	(16cc
.	.	(32a	16ee-y
.	.	32b-y	.
.	.	32cc	16ccJ)
.	.	32b-yJ)	.
4F	8cL	8aL	16ee-yL
.	.	.	(16e-
.	8AJ	(32c	16g
.	.	32d	.
.	.	32e-	16e-yJ)
.	.	32cJ)	.
=25	=25	=25	=25
4BB-y	[2.F	8B-yL	16dL
.	.	.	(16dd
.	.	(32b-y	16ff
.	.	32cc	.
.	.	32dd	16ddJ)
.	.	32b-yJ)	.
4F	.	8aL	16ccL
.	.	.	(16a
.	.	(32f	16cc
.	.	32en	.
.	.	32f	16aJ)
.	.	32gJ)	.
4FF	.	8aL	16ccL
.	.	.	(16c
.	.	(32A	16e-
.	.	32B-y	.
.	.	32c	16cJ)
.	.	32AJ)	.
=26	=26	=26	=26
.	.	.	(<16qe-y
4BB-y	8.FL]	8B-yL	8dL)
.	.	(16g	(16dd
.	16dJ	16b-yJ)	16ggJ)
4C	2c	(4a	(4ff
4CC	.	4g)	4een)
=27	=27	=27	=27
4r	4r	(8b-yL	4r
.	.	8gJ)	.
4CC#	4G	4en	4B-y
4CC#y	4G	4e	4B-y
!!LO:LB
=28	=28	=28	=28
(2CC#	(2G	(2e	(2B-y
8DD)	8F)	8f)	8A)
8r	8r	8r	8r
=29	=29	=29	=29
4BB-y	4B-y	4f	4d
4GG	4g 4G	4gg 4b-y 4d	4bb-y 4dd
4r	4r	4r	8r
.	.	.	(24ddL
.	.	.	24b-y
.	.	.	24gJ)
=30	=30	=30	=30
(4C	(8.GL	(4B-y	(8.enL
.	16EnJ)	.	16gJ)
4FF)	4F	4A)	4f
4r	4r	4r	4r
=31:|!	=31:|!	=31:|!	=31:|!
(4EEn	(8.B-yL	4c	(8.gL
.	16GJ)	.	16b-yJ)
4EE-)	4F	4c	4a
4r	4r	4r	4r
=32	=32	=32	=32
(4DD	((8.fL	4r	(8.b-yL
.	32e	.	32cc
.	32dJ)	.	32ddJ)
4AA)	4c)	4f	4ee-y
4r	4r	4r	4r
=33	=33	=33	=33
((8.BB-yL	4r	(8.fL	(8.ddL
32C	.	32e-y	32ee-y
32DJ)	.	32dJ)	32ffJ)
4E-y)	(8.cL	4c	4gg
.	32e-y	.	.
.	32fJ)	.	.
4En	4g	4c	4b-y
=34	=34	=34	=34
4F	4f	4c	(8.b-yLT
.	.	.	32a
.	.	.	32b-yJ)
4FF	4F	4c	4a
4r	4r	4r	4r
=35	=35	=35	=35
2.r	2.r	2.r	4ff
.	.	.	(<16qee-y
.	.	.	4dd)
.	.	.	4cc
=36	=36	=36	=36
4F	4d	4a-	(8.bnL
.	.	.	32cc
.	.	.	32ddJ)
4E	4e-y	4g	4cc
4r	4r	4r	4r
=37	=37	=37	=37
4F	4A-	4c	4d
4G	2G	(4.Bn	(4.d
4GG	.	.	.
.	.	16cL	16e-yL
.	.	16dJ)	16fJ)
=38	=38	=38	=38
4C	4G	8.cL	8.e-yL
.	.	16BJ	16dJ
8r	4r	4c	4c
8cL	.	.	.
8G	4r	4r	4r
8E-yJ	.	.	.
=39	=39	=39	=39
4C	2.r	2.r	4gg
.	.	.	(<16qff
4r	.	.	4ee-y)
4r	.	.	4dd
=40	=40	=40	=40
4G	4en	4b-y	(8.cc#L
.	.	.	32dd
.	.	.	32eenJ)
4F	4f	4an	4dd
4r	4r	4r	4r
=41	=41	=41	=41
4G	4B-y	4d	4en
4A	2An	(4.c#	(4.e
4AA	.	.	.
.	.	16dL	16fL
.	.	16enJ)	16gJ)
!!LO:LB
=42	=42	=42	=42
4D	8AL	8dL	8fL
.	8aJ	8ddJ	8ffJ
(4D	4r	16r	16r
.	.	16d'L	16f'L
.	.	16d'	16f'
.	.	16d'J	16f'J
4C)	4r	(16eL	(16gL
.	.	16d	16f
.	.	16c#	16e
.	.	16dJ)	16fJ)
=43	=43	=43	=43
4BBn	8BnL	8dL	8fL
.	8dJ	8ffJ	8aa-J
4BB	4r	16r	16r
.	.	16f'L	16a-L
.	.	16f'	16a-y
.	.	16f'J	16a-yJ
4BB	4r	(16fL	(16a-yL
.	.	16e)	16g)
.	.	(16e-y	(16g
.	.	16dJ)	16fJ)
=44	=44	=44	=44
4C	8GL	8cL	8e-yL
.	8gJ	8ccJ	8ee-yJ
(4C	4r	16r	16r
.	.	16cL	16e-yL
.	.	16c	16e-y
.	.	16cJ	16e-yJ
4BB-)	4r	(16dL	(16fL
.	.	16c	16e-y
.	.	16Bn	16d
.	.	16cJ)	16e-yJ)
=45	=45	=45	=45
4AA	8FL	8cL	8e-yL
.	8cJ	8ee-yJ	8ggJ
4AA	4r	16r	16r
.	.	16e-yL	16gL
.	.	16e-y	16g
.	.	16e-yJ	16gJ
4AA	4r	(16dL	(16fL
.	.	16c	16e-y
.	.	16Bn	16d
.	.	16cJ)	16e-yJ)
!!LO:LB
=46	=46	=46	=46
4AA-	8FL	8B-L	8dL
.	8b-yJ	8ddJ	8ffJ
4AA-y	4r	16r	16r
.	.	16B-y'L	16d'L
.	.	16B-y'	16d'
.	.	16B-y'J	16d'J
4AA-y	4r	(16dL	(16fL
.	.	16B-y)	16d)
.	.	(16f	(16a-
.	.	16dJ)	16fJ)
=47	=47	=47	=47
4GG	8GL	8B-yL	8e-yL
.	8gJ	8ee-yJ	8bb-yJ
4G	4r	16r	16r
.	.	16B-y'L	16e-y'L
.	.	16B-y'	16e-y'
.	.	16B-y'J	16e-y'J
4G	4r	(16e-yL	(16gL
.	.	16B-y)	16e-y)
.	.	(16g	(16b-y
.	.	16e-yJ)	16gJ)
=48	=48	=48	=48
4D	8A-L	8B-yL	8fL
.	8b-yJ	8ffJ	8aa-J
4D	4r	16r	16r
.	.	16f'L	16a-'L
.	.	16f'	16a-y'
.	.	16f'J	16a-y'J
4D	4r	(16a-L	(16ccL
.	.	16g)	16b-y)
.	.	(16g	(16b-y
.	.	16fJ)	16a-yJ)
=49	=49	=49	=49
4E-y	8B-yL	8e-yL	8gL
.	8e-yJ	8b-yJ	8ggJ
(4EE-y	(4e-y	8r	8r
.	.	8gg	8bb-y
4EEn)	4g)	8r	8r
.	.	8b-y	8dd
!!LO:LB
=50	=50	=50	=50
4FF	4f	(8.ddL	(8.ffL
.	.	16b-yJ)	16ddJ)
8r	8r	4a	4cc
(8EL	(8gL	.	.
8D	8f	4r	4r
8CJ)	8e-yJ)	.	.
=51	=51	=51	=51
8BB-yL	(16dL	2.f	2.ff
.	16f	.	.
8BB-y	16d	.	.
.	16fJ)	.	.
8BB-y	16dL	.	.
.	16f	.	.
8BB-y	16d	.	.
.	16fJ	.	.
8BB-y	16dL	.	.
.	16f	.	.
8BB-yJ	16d	.	.
.	16fJ	.	.
=52	=52	=52	=52
8CL	16e-yL	[4A	[4a
.	16f	.	.
8C	16e-y	.	.
.	16fJ	.	.
8FF	16cL	(8.AL_	(8.aL_
.	16f	.	.
8FF	16e-y	.	.
.	16fJ	32B-y	32b-y
.	.	32cJ)	32ccJ)
8BB-y	16dL	8B-y	8b-y
.	16f	.	.
8BB-yJ	16B-y	8r	8r
.	16fJ	.	.
=53	=53	=53	=53
.	.	(<32qdL	.
.	.	32qc	.
.	.	32qBJ	.
.	.	.	(<32qddL
.	.	.	32qcc
.	.	.	32qbnJ
8FL	16AL	8c)	8cc)
.	16f	.	.
8F	16c	8r	8r
.	16fJ	.	.
.	.	(<32qe-yL	.
.	.	32qd	.
.	.	32qcJ	.
.	.	.	(<32qee-yL
.	.	.	32qdd
.	.	.	32qccJ
8F	16B-yL	8d)	8dd)
.	16f	.	.
8F	16d	8r	8r
.	16fJ	.	.
.	.	(<32qfL	.
.	.	32qe-y	.
.	.	32qdJ	.
.	.	.	(<32qffL
.	.	.	32qee-y
.	.	.	32qddJ
8F	16cL	8e-y)	8ee-y)
.	16f	.	.
8FJ	16A	8r	8r
.	16fJ	.	.
=54	=54	=54	=54
.	(<16qc	.	.
.	.	(<16qe-y	.
.	.	.	(<16qee-y
4F	8B-yL)	8dL)	8ddL)
.	16A	16c	16cc
.	16B-yJ	16dJ	16ddJ
4FF	4A	4c	4cc
4r	4r	4r	4r
=55	=55	=55	=55
8BB-yL	(16DL	2.f	2.ff
.	16F	.	.
8BB-y	16D	.	.
.	16FJ)	.	.
8BB-y	16DL	.	.
.	16F	.	.
8BB-y	16D	.	.
.	16FJ	.	.
8BB-y	16DL	.	.
.	16F	.	.
8BB-yJ	16D	.	.
.	16FJ	.	.
=56	=56	=56	=56
8CL	16E-yL	[4A	[4a
.	16F	.	.
8C	16E-y	.	.
.	16FJ	.	.
8FF	16CL	(8.AL_	(8.aL_
.	16F	.	.
8FF	16E-y	.	.
.	16FJ	32B-y	32b-y
.	.	32cJ)	32ccJ)
8BB-y	8DL	8B-yL	4b-y
8BB-yJ	[8B-yJ	(16d	.
.	.	16fJ)	.
=57	=57	=57	=57
.	.	(<16qf	.
.	.	.	(<16qa
8EE-yL	8B-yL]	8e-yL)	8gL)
8EE-y	8G	16d	16f
.	.	16cJ	16e-yJ
8FF	8F	4B-y	4d
8FF	8F	.	.
8FF	8F	4AT	4cT
8FFJ	8FJ	.	.
!!LO:LB
=58	=58	=58	=58
4BB-y	4F	8B-yL	8B-yL
.	.	(32dd	(32bb-y
.	.	32ee-y	32ccc
.	.	16ffJ)	16dddJ)
4D	2f	16r	16r
.	.	16dd'L	16ff'L
.	.	16cc'	16ee-y'
.	.	16b-y'J	16dd'J
4F	.	16a'L	16cc'L
.	.	16g'	16b-y'
.	.	16a'	16cc'
.	.	16f'J	16a'J
=59	=59	=59	=59
4GG	4r	8dL	8b-yL
.	.	(32b-y	(32gg
.	.	32cc	32aa
.	.	16ddJ)	16bb-yJ)
4BB-y	2d	16r	16r
.	.	16b-y'L	16dd'L
.	.	16a'	16cc'
.	.	16g'J	16b-y'J
4D	.	16f'L	16a-'L
.	.	16a-'	16cc'
.	.	16g'	16b-y'
.	.	16f'J	16a-y'J
=60	=60	=60	=60
4EE-y	4r	8e-yL	8gL
.	.	(32ee-y	(32gg
.	.	32ff	32aan
.	.	16ggJ)	16bb-yJ)
4GG	[2B-y	16r	16r
.	.	16g'L	16b-y'L
.	.	16f'	16a'
.	.	16e-y'J	16g'J
4BB-y	.	16d'L	16f'L
.	.	16dd'	16ff'
.	.	16dd'	16ff'
.	.	16dd'J	16ff'J
!!LO:LB
=61	=61	=61	=61
8E-yL	8B-yL]	(16ddL	(16ffL
.	.	16cc)	16ee-y)
8E-y	8g	(16ee-y	(16gg
.	.	16ccJ)	16ee-yJ)
8F	8f	4b-y	4dd
8F	8f	.	.
8FF	8f	4aT	4ccT
8FFJ	8fJ	.	.
=62	=62	=62	=62
!!Error: measure 62, staff 2 is underfilled: adding token 8ryy at end of measure to complete its duration.
4BB-y	2f	8b-yL	16b-yL
.	.	.	(16dd
.	.	(32b-y	16ff
.	.	32cc	.
.	.	32dd	16ddJ)
.	.	32b-yJ)	.
4F	.	(32aL	16ccL
.	.	32b-y	.
.	.	32a	(16a
.	.	32b-yJ)	.
.	.	8ccL	16cc
.	.	.	16aJ)
4F#	4a	(32a	16ee-yL
.	.	32b-y	.
.	.	32cc	(16cc
.	.	32aJ)	.
.	.	8ryy	16ee-y
.	.	.	16ccJ)
=63	=63	=63	=63
4G	4d	8gL	16b-yL
.	.	.	(16bb-y
.	.	(32g	16ddd
.	.	32a	.
.	.	32b-y	16bb-yJ)
.	.	32gJ)	.
4D	4B-y	8fL	16aa-L
.	.	.	(16ff
.	.	(32d	16aa-y
.	.	32e-y	.
.	.	32f	16ffJ)
.	.	32e-yJ)	.
4BB-y	4d	8fL	16aa-yL
.	.	.	(16a-
.	.	(32f	16cc
.	.	32g	.
.	.	32a-	16a-yJ)
.	.	32fJ)	.
!!LO:LB
=64	=64	=64	=64
4E-y	2B-y	8e-yL	16gL
.	.	.	(16gg
.	.	(32ee-y	16bb-y
.	.	32ff	.
.	.	32gg	16ggJ)
.	.	32ee-yJ)	.
4BB-y	.	8ddL	16ffL
.	.	.	(16dd
.	.	(32b-y	16ff
.	.	32a	.
.	.	32b-y	16ddJ)
.	.	32ccJ)	.
4B-y	(8b-yL	8ddL	16ffL
.	.	.	(16f
.	8fJ)	(32d	16b-y
.	.	32e-y	.
.	.	32f	16a-J)
.	.	32dJ)	.
=65	=65	=65	=65
.	.	(<16qf	.
.	.	.	(<16qa
4E-y	(8B-yL	8e-yL)	8gL)
.	8GJ)	(16d	(16f
.	.	16cJ)	16e-yJ)
4Fn	4F	(4B-y	(4d
4FF	4F	4A)	4c)
=66	=66	=66	=66
4r	4r	4r	(8ee-yL
.	.	.	8ccJ)
4FF#	4c	4e-y	4a
4FF#y	4c	4e-y	4a
=67	=67	=67	=67
(2FF	(2c	(2e-y	(2a
8GG)	8B-y)	8d)	8b-y)
8r	8r	8r	8r
=68	=68	=68	=68
4r	4r	4B-y	4g
4EE-y	4E-y	4ee-y 4g 4B-y	4gg 4b-y 4e-y
4r	4r	4r	8r
.	.	.	(24gL
.	.	.	24e-y
.	.	.	24cJ)
=69	=69	=69	=69
(4FFn	4F	(8.cL	(8.AL
.	.	16e-yJ)	16cJ)
4BB-y)	4F	4d	4B-y
4r	4r	4r	4r
=:|!	=:|!	=:|!	=:|!
*-	*-	*-	*-
!!!RDF**kern: < = below
